X:1
T:Title
%%score ( 1 2 ) 3
L:1/8
Q:1/4=103
M:4/4
K:Bb
V:1 treble nm="Grand Piano, Soprano"
V:2 treble 
V:3 bass nm="Choir Pad, The Great Judgment Day"
V:1
 (3FGA B2 F2 D2 | [EF]2 [DB]2 [DB]4 | (3GAB c2 A2 G2 | F2 [Fd]6 | z2 d2 z4 | G2 [^Fd]2 [Fd]4 | %6
w: By~Daniel~Brink~Towner * * * * *||||||
 (3[^Fd][Fd][Fd] [=Fc]2 [FA]2 [GB]2 | [=EG]2 F4- FF | GA B2 [FB]2 [Fc]2- | [Fc][FB] [FB]2 [FA]3 F | %10
w: ||||
 [FA][FB] [Fc]2 [Fc]2 [Fd]2- | [Fd][Fe] [Fd]4- [Fd]F | [FB][Fc] [Bd]2 [Bd]2 [Ac]2 | %13
w: |||
 [_Ad]2 [Gf]2 [Ge]3 [Ge] | [Gd][Gc] [FB]2 [Fd]2 [Af]2 | f2 z2 z4 | z8 |] %17
w: ||||
V:2
 x8 | x8 | x8 | x8 | (3[Fd][Fd][Fd] GD [DA]2 [DB]2 | x8 | x8 | x8 | x8 | x8 | x8 | x8 | x8 | x8 | %14
 x8 | AF [FB]6- | [FB]2 z2 z4 |] %17
V:3
 (3F,G,A, B,2 F,2 D,2 | F,2 [B,,F,]2 [B,,F,]4 | (3G,A,B, C2 A,2 G,2 | [F,A,]2 B,6 | %4
 (3B,B,B, [G,B,]2 [^F,C]2 [G,B,]2 | [G,B,]2 [D,A,]2 [D,A,]4 | %6
 (3[D,A,][D,A,][D,A,] [C,A,]2 [C,C]2 [=E,C]2 | [C,B,]2 [F,A,]4- [F,A,]F, | %8
 G,A, B,2 [B,D]2 [A,E]2- | [A,E][B,D] [F,D]2 [F,C]3 [F,A,] | [E,C][D,B,] [C,A,]2 [F,A,]2 [F,B,]2- | %11
 [F,B,][F,C] [B,,B,]4- [B,,B,][K:treble][B,D] | [B,D][B,E] [B,F]2 [B,F]2 [F,F]2 | %13
 [B,F]2[K:bass] [E,E]2 [E,B,]3 [E,B,] | [E,B,][E,E] [F,D]2 [F,B,]2 [F,C]2 | [F,E]2 [B,D]6- | %16
 [B,D]2 z2 z4 |] %17

